ocioutils/luts/AgX_Base_P3.cube
TITLE "AgX_Formation P3"
# AgX Base P3 Formation LUT
# This LUT expects input to be E Gamut Log2 encoding from -10 stops to +15 stops
# But the end image formation will be from -10 to 6.5 encoded in power 2.4
#  rotate = [3.0, -1, -2.0], inset = [0.4, 0.22, 0.13], outset = [0.4, 0.22, 0.04]
# The image formed has 40% per-channel shifts
DOMAIN_MIN 0 0 0
DOMAIN_MAX 1 1 1
LUT_3D_SIZE 5
0.0000002 0 0.0000018
0.1535237 0.0298598 0
0.8889623 0.3814878 0.3081181
1 0.973511 0.9611971
1 1 1
0 0.1463022 0.0554575
0.1572068 0.1508238 0
0.8876617 0.398173 0.3099499
1 0.9735453 0.9612044
1 1 1
0.1392413 0.8339223 0.2400832
0.208076 0.8331188 0.2432238
0.8265007 0.8037344 0.4422504
1 0.9760958 0.9617498
1 1 1
0.9529627 1 0.9497396
0.9530117 1 0.9497507
0.9566363 1 0.9505847
1 1 0.9897083
1 1 1
1 1 1
1 1 1
1 1 1
1 1 1
1 1 1
0 0.041257 0.1139046
0.1477118 0 0.142342
0.8912138 0.3650378 0.3082831
1 0.9734814 0.9611952
1 1 1
0 0.1465013 0.1482553
0.1395983 0.1395978 0.1396083
0.8897983 0.3832024 0.3099666
1 0.9735158 0.9612024
1 1 1
0 0.8328598 0.2537216
0.1352059 0.8333582 0.2387139
0.8256997 0.8028982 0.4403211
1 0.9760679 0.9617476
1 1 1
0.95291 1 0.9497249
0.9529591 1 0.9497359
0.9565869 1 0.9505703
1 1 0.9897038
1 1 1
1 1 1
1 1 1
1 1 1
1 1 1
1 1 1
0.1111436 0.3088666 0.77725
0.1769863 0.3136009 0.7792439
0.8338964 0.47054 0.8047283
1 0.9711664 0.9610767
1 1 1
0 0.3162634 0.7774248
0.1262611 0.3162034 0.7848998
0.8343201 0.471423 0.8051668
1 0.9712026 0.9610835
1 1 1
0 0.812154 0.8151462
0 0.8115128 0.8145094
0.7853072 0.7853064 0.7853255
1 0.973886 0.9616028
1 1 1
0.9487341 1 0.9485893
0.9487869 1 0.9486005
0.952682 1 0.9494534
1 1 0.9893624
1 1 1
1 1 1
1 1 1
1 1 1
1 1 1
1 1 1
0.9086623 0.9354954 1
0.9088259 0.9355572 1
0.9203255 0.9399684 1
1 0.9930224 1
1 1 1
0.9085486 0.9354771 1
0.9087125 0.935539 1
0.9202327 0.9399554 1
1 0.9930246 1
1 1 1
0.8988529 0.933796 1
0.8990451 0.9338652 1
0.9124068 0.9387524 1
1 0.9931933 1
1 1 1
0.9461243 1 1
0.9461203 1 1
0.945816 1 1
1 1 1
1 1 1
1 1 1
1 1 1
1 1 1
1 1 1
1 1 1
1 1 1
1 1 1
1 1 1
1 1 1
1 1 1
1 1 1
1 1 1
1 1 1
1 1 1
1 1 1
1 1 1
1 1 1
1 1 1
1 1 1
1 1 1
1 1 1
1 1 1
1 1 1
1 1 1
1 1 1
1 1 1
1 1 1
1 1 1
1 1 1
1 1 1
