ocioutils/luts/AgX_Base_P3.cube
TITLE "AgX_Formation P3"
# AgX Base P3 Formation LUT
# This LUT expects input to be E Gamut Log2 encoding from -10 stops to +15 stops
# But the end image formation will be from -10 to 6.5 encoded in power 2.4
#  rotate = [3.0, -1, -2.0], inset = [0.4, 0.22, 0.13], outset = [0.4, 0.22, 0.04]
# The image formed has 40% per-channel shifts
DOMAIN_MIN 0 0 0
DOMAIN_MAX 1 1 1
LUT_3D_SIZE 9
0.0000002 0 0.0000018
0.0465733 0.0053073 0
0.1535237 0.0298598 0
0.4449743 0.0870506 0
0.8889623 0.3814878 0.3081181
1 0.793208 0.7643569
1 0.973511 0.9611971
1 1 1
1 1 1
0 0.0443403 0.0184393
0.0483586 0.0463355 0
0.1550338 0.0594924 0
0.4454543 0.1017559 0
0.8888278 0.3832667 0.3083058
1 0.79328 0.7643717
1 0.9735145 0.9611979
1 1 1
1 1 1
0 0.1463022 0.0554575
0.025249 0.147272 0
0.1572068 0.1508238 0
0.4486266 0.1781729 0
0.8876617 0.398173 0.3099499
1 0.7939061 0.7645012
1 0.9735453 0.9612044
1 1 1
1 1 1
0 0.4188384 0.1583496
0 0.4194534 0.1505606
0.0951751 0.4242569 0
0.4501775 0.4320836 0
0.8781181 0.4966881 0.3247464
1 0.7992196 0.765626
1 0.9738136 0.9612607
1 1 1
1 1 1
0.1392413 0.8339223 0.2400832
0.1485819 0.8338385 0.2404045
0.208076 0.8331188 0.2432238
0.4195124 0.8276016 0.2685025
0.8265007 0.8037344 0.4422504
1 0.8370947 0.7749821
1 0.9760958 0.9617498
1 1 1
1 1 1
0.7439337 1 0.7372774
0.7440421 1 0.7373005
0.7449844 1 0.7375016
0.7529437 0.9996795 0.7392472
0.807987 0.99486 0.7536162
0.9896959 0.9779021 0.829675
1 0.9926716 0.9658159
1 1 1
1 1 1
0.9529627 1 0.9497396
0.9529677 1 0.9497408
0.9530117 1 0.9497507
0.9533937 1 0.9498369
0.9566363 1 0.9505847
0.9798174 1 0.9567385
1 1 0.9897083
1 1 1
1 1 1
1 1 1
1 1 1
1 1 1
1 1 1
1 1 1
1 1 1
1 1 1
1 1 1
1 1 1
1 1 1
1 1 1
1 1 1
1 1 1
1 1 1
1 1 1
1 1 1
1 1 1
1 1 1
0 0.0131854 0.0388494
0.0443068 0 0.0428352
0.1520178 0 0.0477277
0.4458672 0.0678118 0
0.8891844 0.3798702 0.3081225
1 0.7931459 0.7643531
1 0.9735079 0.961197
1 1 1
1 1 1
0 0.0446249 0.0452972
0.0428233 0.0428231 0.0428274
0.1583248 0.0311873 0
0.4462777 0.0873144 0
0.8890487 0.3816647 0.3083087
1 0.793218 0.7643679
1 0.9735115 0.9611977
1 1 1
1 1 1
0 0.1440329 0.0726466
0 0.1443831 0.0545251
0.1528699 0.1466632 0
0.4489456 0.1724619 0
0.8878725 0.3966953 0.3099399
1 0.7938445 0.7644974
1 0.9735423 0.9612042
1 1 1
1 1 1
0 0.4174465 0.1651666
0 0.4180447 0.1580544
0.0737694 0.4232852 0
0.4488757 0.4308305 0
0.8782555 0.4958239 0.3246486
1 0.7991614 0.7656215
1 0.9738106 0.9612605
1 1 1
1 1 1
0.1284358 0.8339486 0.2396215
0.1388337 0.8338644 0.2399427
0.2023291 0.8331412 0.242761
0.4178652 0.8275973 0.2680512
0.8264187 0.8036487 0.4420529
1 0.8370552 0.7749744
1 0.9760929 0.9617495
1 1 1
1 1 1
0.7438173 1 0.7372465
0.7439259 1 0.7372695
0.744869 1 0.7374708
0.7528357 0.9996855 0.7392168
0.8079195 0.9948627 0.75359
0.9896918 0.9778977 0.8296659
1 0.9926695 0.9658155
1 1 1
1 1 1
0.9529573 1 0.9497381
0.9529623 1 0.9497393
0.9530063 1 0.9497491
0.9533883 1 0.9498353
0.9566312 1 0.9505832
0.979814 1 0.9567372
1 1 0.9897078
1 1 1
1 1 1
1 1 1
1 1 1
1 1 1
1 1 1
1 1 1
1 1 1
1 1 1
1 1 1
1 1 1
1 1 1
1 1 1
1 1 1
1 1 1
1 1 1
1 1 1
1 1 1
1 1 1
1 1 1
0 0.041257 0.1139046
0.0328938 0.0284268 0.1264297
0.1477118 0 0.142342
0.4390351 0 0.1454862
0.8912138 0.3650378 0.3082831
1 0.792603 0.7643206
1 0.9734814 0.9611952
1 1 1
1 1 1
0 0.0603829 0.1245776
0 0.0486878 0.1339014
0.1497715 0 0.1443278
0.440761 0 0.1384264
0.8910673 0.3669816 0.3084553
1 0.7926754 0.7643354
1 0.973485 0.961196
1 1 1
1 1 1
0 0.1465013 0.1482553
0 0.1437935 0.145516
0.1395983 0.1395978 0.1396083
0.4605333 0.0909847 0
0.8897983 0.3832024 0.3099666
1 0.7933055 0.7644643
1 0.9735158 0.9612024
1 1 1
1 1 1
0 0.4096877 0.2108804
0 0.4094938 0.2065388
0 0.4133112 0.1558504
0.4372615 0.4196535 0
0.8795098 0.4880725 0.3238611
1 0.7986513 0.7655833
1 0.9737843 0.9612587
1 1 1
1 1 1
0 0.8328598 0.2537216
0 0.8330837 0.2499876
0.1352059 0.8333582 0.2387139
0.4028002 0.8275739 0.2640865
0.8256997 0.8028982 0.4403211
1 0.8367098 0.7749072
1 0.9760679 0.9617476
1 1 1
1 1 1
0.7427973 1 0.7369763
0.7429067 1 0.7369994
0.7438578 1 0.7372011
0.7518889 0.9997389 0.7389511
0.8073287 0.9948864 0.753361
0.9896567 0.9778597 0.8295866
1 0.992652 0.9658121
1 1 1
1 1 1
0.95291 1 0.9497249
0.9529151 1 0.949726
0.9529591 1 0.9497359
0.9533415 1 0.9498222
0.9565869 1 0.9505703
0.9797848 1 0.956726
1 1 0.9897038
1 1 1
1 1 1
1 1 1
1 1 1
1 1 1
1 1 1
1 1 1
1 1 1
1 1 1
1 1 1
1 1 1
1 1 1
1 1 1
1 1 1
1 1 1
1 1 1
1 1 1
1 1 1
1 1 1
1 1 1
0 0.1207793 0.3308194
0 0.1167463 0.3365526
0.1232187 0.1058072 0.3621346
0.4261926 0.0660544 0.4107162
0.8924862 0.3336048 0.4273204
1 0.7877105 0.7640939
1 0.9732497 0.9611806
1 1 1
1 1 1
0 0.1269118 0.3324041
0 0.1233276 0.3378102
0.1170521 0.1073612 0.3661312
0.4268407 0.0662155 0.4113389
0.8926946 0.3336197 0.4259938
1 0.7877868 0.764108
1 0.9732532 0.9611813
1 1 1
1 1 1
0 0.179748 0.360263
0 0.1769197 0.3621779
0 0.1434085 0.3928193
0.4324398 0.0676319 0.4167189
0.8945351 0.3337279 0.4137845
1 0.7884498 0.7642309
1 0.9732842 0.9611877
1 1 1
1 1 1
0 0.4164904 0.4213314
0 0.4156628 0.420497
0 0.4083427 0.413115
0.4022353 0.4022341 0.4022628
0.8880806 0.4333354 0.3773923
1 0.7940653 0.7653007
1 0.9735541 0.9612438
1 1 1
1 1 1
0 0.8190977 0.4276783
0 0.8190357 0.426204
0 0.8197346 0.413506
0.2474095 0.8271961 0.3063405
0.819138 0.796057 0.4245145
1 0.8336346 0.7743456
1 0.9758491 0.9617304
1 1 1
1 1 1
0.7334761 1 0.7345887
0.7335942 1 0.7346123
0.7346202 1 0.7348178
0.743262 1 0.7366023
0.8020162 0.9951073 0.7513349
0.9893484 0.9775264 0.8288911
1 0.9924985 0.9657828
1 1 1
1 1 1
0.9524961 1 0.9496095
0.9525012 1 0.9496106
0.9525455 1 0.9496205
0.9529306 1 0.949707
0.956199 1 0.9504568
0.9795284 1 0.9566281
1 1 0.9896688
1 1 1
1 1 1
1 1 1
1 1 1
1 1 1
1 1 1
1 1 1
1 1 1
1 1 1
1 1 1
1 1 1
1 1 1
1 1 1
1 1 1
1 1 1
1 1 1
1 1 1
1 1 1
1 1 1
1 1 1
0.1111436 0.3088666 0.77725
0.1202102 0.3093422 0.7774645
0.1769863 0.3136009 0.7792439
0.3839232 0.3389431 0.7907368
0.8338964 0.47054 0.8047283
1 0.7847426 0.8130072
1 0.9711664 0.9610767
1 1 1
1 1 1
0.1027744 0.3091566 0.777849
0.1127972 0.3096301 0.7780612
0.1728585 0.3138718 0.7798214
0.3830301 0.3393957 0.791157
0.8339401 0.470631 0.8047735
1 0.784745 0.8129516
1 0.9711701 0.9610774
1 1 1
1 1 1
0 0.3162634 0.7774248
0 0.3154102 0.7792473
0.1262611 0.3162034 0.7848998
0.3748134 0.3433873 0.7948481
0.8343201 0.471423 0.8051668
1 0.7847654 0.8124643
1 0.9712026 0.9610835
1 1 1
1 1 1
0 0.4317889 0.7807685
0 0.4309389 0.7810318
0 0.4233024 0.7834937
0.2101204 0.3679181 0.8308992
0.8375603 0.4781942 0.8085233
1 0.7849377 0.8079881
1 0.9714853 0.961137
1 1 1
1 1 1
0 0.812154 0.8151462
0 0.8120882 0.8150809
0 0.8115128 0.8145094
0 0.8063496 0.8093822
0.7853072 0.7853064 0.7853255
1 0.8173126 0.7949743
1 0.973886 0.9616028
1 1 1
1 1 1
0.6786686 1 0.7668087
0.678656 1 0.7666963
0.6785468 1 0.7657088
0.6889347 1 0.7641082
0.7657671 0.9957339 0.7639325
0.9865415 0.9744925 0.822547
1 0.9911342 0.9655373
1 1 1
1 1 1
0.9487341 1 0.9485893
0.9487395 1 0.9485904
0.9487869 1 0.9486005
0.9491983 1 0.9486886
0.952682 1 0.9494534
0.9772302 1 0.9557623
1 1 0.9893624
1 1 1
1 1 1
1 1 1
1 1 1
1 1 1
1 1 1
1 1 1
1 1 1
1 1 1
1 1 1
1 1 1
1 1 1
1 1 1
1 1 1
1 1 1
1 1 1
1 1 1
1 1 1
1 1 1
1 1 1
0.6405826 0.7078125 0.9891974
0.6409399 0.707933 0.989181
0.6440259 0.7089775 0.9890384
0.6687667 0.7175912 0.9878845
0.7785719 0.7508895 0.9851499
0.9966716 0.8372151 0.9804188
1 0.9701151 0.9822005
1 1 1
1 1 1
0.6403318 0.7077808 0.9892446
0.6406898 0.7079014 0.989228
0.6437814 0.7089469 0.9890851
0.6685648 0.7175683 0.9879276
0.7785333 0.7509213 0.9851712
0.9966736 0.8372196 0.980421
1 0.9701152 0.9821977
1 1 1
1 1 1
0.6381153 0.7074985 0.9896577
0.6384792 0.7076202 0.9896408
0.6416214 0.7086746 0.9894939
0.6667823 0.717364 0.9883058
0.778195 0.7511993 0.9853573
0.9966907 0.8372587 0.9804401
1 0.9701162 0.9821735
1 1 1
1 1 1
0.6163283 0.7045426 0.9934219
0.616754 0.7046749 0.9934007
0.6204244 0.7058204 0.9932169
0.6494826 0.7152036 0.991734
0.7750825 0.7536461 0.986998
0.9968398 0.8375989 0.9806062
1 0.9701252 0.9819614
1 1 1
1 1 1
0.5742016 0.762757 1
0.5742112 0.7626979 1
0.5742966 0.7621805 1
0.5752002 0.7575565 1
0.7028466 0.7597689 1
0.9981132 0.8405032 0.9820258
1 0.9702003 0.9800151
1 1 1
1 1 1
0.7251865 0.9879023 0.9891423
0.7251776 0.9878996 0.9891395
0.7250997 0.9878752 0.9891154
0.724418 0.9876622 0.9889045
0.7182801 0.9857489 0.9870108
0.9697017 0.9697014 0.9697098
1 0.9841063 0.9743936
1 1 1
1 1 1
0.9277124 1 0.9621371
0.9277118 1 0.9621317
0.9277069 1 0.962084
0.927664 1 0.9616656
0.931659 1 0.9610246
0.9621393 1 0.9610254
1 1 0.9865728
1 1 1
1 1 1
1 1 1
1 1 1
1 1 1
1 1 1
1 1 1
1 1 1
1 1 1
1 1 1
1 1 1
1 1 1
1 1 1
1 1 1
1 1 1
1 1 1
1 1 1
1 1 1
1 1 1
1 1 1
0.9086623 0.9354954 1
0.9086792 0.9355017 1
0.9088259 0.9355572 1
0.9100943 0.9360375 1
0.9203255 0.9399684 1
0.9668084 0.9548126 1
1 0.9930224 1
1 1 1
1 1 1
0.9086506 0.9354935 1
0.9086675 0.9354998 1
0.9088143 0.9355553 1
0.9100829 0.9360357 1
0.920316 0.9399671 1
0.9668065 0.9548142 1
1 0.9930226 1
1 1 1
1 1 1
0.9085486 0.9354771 1
0.9085655 0.9354834 1
0.9087125 0.935539 1
0.9099833 0.9360199 1
0.9202327 0.9399554 1
0.9667903 0.9548279 1
1 0.9930246 1
1 1 1
1 1 1
0.9076475 0.9353309 1
0.9076646 0.9353374 1
0.9078139 0.9353935 1
0.9091039 0.9358793 1
0.919498 0.9398513 1
0.9666475 0.9549475 1
1 0.993042 1
1 1 1
1 1 1
0.8988529 0.933796 1
0.8988727 0.9338031 1
0.8990451 0.9338652 1
0.9005332 0.9344019 1
0.9124068 0.9387524 1
0.9653341 0.956001 1
1 0.9931933 1
1 1 1
1 1 1
0.8841362 0.9580655 1
0.8841365 0.9580625 1
0.8841384 0.958037 1
0.8841563 0.9578135 1
0.8843706 0.955822 1
0.9348936 0.9583632 1
1 0.9944865 1
1 1 1
1 1 1
0.9461243 1 1
0.9461239 1 1
0.9461203 1 1
0.9460891 1 1
0.945816 1 1
0.9433623 1 1
1 1 1
1 1 1
1 1 1
1 1 1
1 1 1
1 1 1
1 1 1
1 1 1
1 1 1
1 1 1
1 1 1
1 1 1
1 1 1
1 1 1
1 1 1
1 1 1
1 1 1
1 1 1
1 1 1
1 1 1
1 1 1
1 1 1
1 1 1
1 1 1
1 1 1
1 1 1
1 1 1
1 1 1
1 1 1
1 1 1
1 1 1
1 1 1
1 1 1
1 1 1
1 1 1
1 1 1
1 1 1
1 1 1
1 1 1
1 1 1
1 1 1
1 1 1
1 1 1
1 1 1
1 1 1
1 1 1
1 1 1
1 1 1
1 1 1
1 1 1
1 1 1
1 1 1
1 1 1
1 1 1
1 1 1
1 1 1
1 1 1
1 1 1
1 1 1
1 1 1
1 1 1
1 1 1
1 1 1
1 1 1
1 1 1
1 1 1
1 1 1
1 1 1
1 1 1
1 1 1
1 1 1
1 1 1
1 1 1
1 1 1
1 1 1
1 1 1
1 1 1
1 1 1
1 1 1
1 1 1
1 1 1
1 1 1
1 1 1
1 1 1
1 1 1
1 1 1
1 1 1
1 1 1
1 1 1
1 1 1
1 1 1
1 1 1
1 1 1
1 1 1
1 1 1
1 1 1
1 1 1
1 1 1
1 1 1
1 1 1
1 1 1
1 1 1
1 1 1
1 1 1
1 1 1
1 1 1
1 1 1
1 1 1
1 1 1
1 1 1
1 1 1
1 1 1
1 1 1
1 1 1
1 1 1
1 1 1
1 1 1
1 1 1
1 1 1
1 1 1
1 1 1
1 1 1
1 1 1
1 1 1
1 1 1
1 1 1
1 1 1
1 1 1
1 1 1
1 1 1
1 1 1
1 1 1
1 1 1
1 1 1
1 1 1
1 1 1
1 1 1
1 1 1
1 1 1
1 1 1
1 1 1
1 1 1
1 1 1
1 1 1
1 1 1
1 1 1
1 1 1
1 1 1
1 1 1
1 1 1
1 1 1
1 1 1
1 1 1
1 1 1
1 1 1
1 1 1
1 1 1
1 1 1
1 1 1
1 1 1
1 1 1
1 1 1
1 1 1
1 1 1
1 1 1
1 1 1
1 1 1
1 1 1
1 1 1
1 1 1
1 1 1
1 1 1
1 1 1
1 1 1
1 1 1
1 1 1
1 1 1
1 1 1
1 1 1
1 1 1
1 1 1
1 1 1
1 1 1
