ocioutils/luts/AgX_Base_P3.cube
TITLE "AgX_Formation P3"
# AgX Base P3 Formation LUT
# This LUT expects input to be E Gamut Log2 encoding from -10 stops to +15 stops
# But the end image formation will be from -10 to 6.5 encoded in power 2.4
#  rotate = [3.0, -1, -2.0], inset = [0.4, 0.22, 0.13], outset = [0.4, 0.22, 0.04]
# The image formed has 40% per-channel shifts
DOMAIN_MIN 0 0 0
DOMAIN_MAX 1 1 1
LUT_3D_SIZE 57
0.0000002 0 0.0000018
0.0048453 0 0.0004097
0.0101628 0 0.0007263
0.0160254 0 0.000802
0.0225055 0.000927 0
0.0296814 0.0021946 0
0.0376627 0.0036114 0
0.0465733 0.0053073 0
0.0565231 0.0075022 0
0.0676596 0.0106174 0
0.0804479 0.0138169 0
0.095114 0.0172536 0
0.1119386 0.0210203 0
0.1312677 0.0251955 0
0.1535237 0.0298598 0
0.1792167 0.0351036 0
0.2089542 0.041034 0
0.2434452 0.0477819 0
0.2834889 0.0555111 0
0.3299345 0.064432 0
0.3835811 0.0748208 0
0.4449743 0.0870506 0
0.5140095 0.1016409 0
0.5888183 0.1193937 0
0.6639416 0.1416459 0
0.7372818 0.1693802 0
0.7974764 0.2309332 0.1397032
0.8473297 0.3044065 0.2255478
0.8889623 0.3814878 0.3081181
0.9230508 0.4578883 0.3920174
0.9507853 0.5301293 0.4728565
0.9736443 0.5956236 0.5458101
0.9926676 0.6542535 0.6108866
1 0.7063617 0.6685677
1 0.7524783 0.7194913
1 0.793208 0.7643569
1 0.8291635 0.8038646
1 0.8609271 0.8386774
1 0.8890315 0.8694001
1 0.9139517 0.8965718
1 0.936105 0.9206648
1 0.9558537 0.9420888
1 0.973511 0.9611971
1 0.9893458 0.9782928
1 1 0.9936353
1 1 1
1 1 1
1 1 1
1 1 1
1 1 1
1 1 1
1 1 1
1 1 1
1 1 1
1 1 1
1 1 1
1 1 1
0 0.0045522 0.0019505
0.0051543 0.0049077 0
0.0105626 0.0063165 0
0.0164076 0.0075119 0
0.0228445 0.0085841 0
0.0299784 0.0096085 0
0.0379187 0.0106624 0
0.0467915 0.0118314 0
0.0567038 0.013354 0
0.0678594 0.0155183 0
0.0806343 0.0179914 0
0.0952747 0.020828 0
0.1120717 0.0240849 0
0.1313759 0.0278236 0
0.1536113 0.0321135 0
0.1792878 0.0370368 0
0.2090126 0.042693 0
0.2434936 0.0492063 0
0.2835296 0.0567345 0
0.3299687 0.0654819 0
0.3836096 0.0757197 0
0.4449975 0.0878162 0
0.5140271 0.1022865 0
0.5888292 0.1199282 0
0.6639452 0.1420747 0
0.7372791 0.169715 0
0.7974705 0.2311428 0.1397128
0.8473231 0.3045385 0.2255572
0.888956 0.3815717 0.3081269
0.9230455 0.4579409 0.392025
0.9507811 0.5301622 0.472862
0.9736413 0.5956443 0.5458138
0.9926654 0.6542666 0.6108891
1 0.70637 0.6685694
1 0.7524835 0.7194924
1 0.7932113 0.7643576
1 0.8291656 0.8038651
1 0.8609285 0.8386777
1 0.8890324 0.8694003
1 0.9139523 0.8965719
1 0.9361054 0.9206648
1 0.955854 0.9420889
1 0.9735111 0.9611972
1 0.9893459 0.9782928
1 1 0.9936353
1 1 1
1 1 1
1 1 1
1 1 1
1 1 1
1 1 1
1 1 1
1 1 1
1 1 1
1 1 1
1 1 1
1 1 1
0 0.0095847 0.0040948
0.0058971 0.0098014 0
0.0107099 0.0102133 0
0.016672 0.0116617 0
0.0231419 0.0129753 0
0.0302736 0.0142035 0
0.0381949 0.0154017 0
0.0470407 0.0166331 0
0.0569354 0.0181413 0
0.0681113 0.0200488 0
0.0808711 0.0222076 0
0.0954815 0.0246926 0
0.1122451 0.0275801 0
0.1315184 0.0309488 0
0.1537274 0.0348821 0
0.1793828 0.0394719 0
0.2090909 0.0448234 0
0.2435589 0.0510625 0
0.2835845 0.0583464 0
0.330015 0.0668771 0
0.3836484 0.0769221 0
0.445029 0.0888453 0
0.5140511 0.1031575 0
0.588844 0.1206515 0
0.66395 0.1426562 0
0.7372753 0.1701698 0
0.7974625 0.2314281 0.139726
0.8473141 0.3047181 0.22557
0.8889474 0.3816859 0.3081389
0.9230383 0.4580125 0.3920355
0.9507755 0.530207 0.4728695
0.9736371 0.5956724 0.5458189
0.9926624 0.6542844 0.6108925
1 0.7063813 0.6685716
1 0.7524907 0.7194939
1 0.7932159 0.7643585
1 0.8291686 0.8038657
1 0.8609304 0.8386781
1 0.8890336 0.8694006
1 0.9139531 0.8965721
1 0.9361059 0.920665
1 0.9558543 0.942089
1 0.9735113 0.9611972
1 0.9893461 0.9782928
1 1 0.9936354
1 1 1
1 1 1
1 1 1
1 1 1
1 1 1
1 1 1
1 1 1
1 1 1
1 1 1
1 1 1
1 1 1
1 1 1
0 0.0151576 0.0064532
0.0055504 0.0152856 0
0.0115337 0.0155589 0
0.0167522 0.0159954 0
0.0233371 0.0174456 0
0.0305212 0.0187989 0
0.0384605 0.020096 0
0.0473031 0.0213876 0
0.0572207 0.0229498 0
0.0684194 0.0247377 0
0.0811648 0.0267178 0
0.0957425 0.0289705 0
0.1124675 0.0315806 0
0.1317036 0.034639 0
0.1538802 0.0382434 0
0.1795088 0.0424997 0
0.2091955 0.0475253 0
0.2436466 0.0534551 0
0.2836585 0.0604512 0
0.3300777 0.0687176 0
0.3837009 0.0785208 0
0.4450717 0.0902222 0
0.5140837 0.1043287 0
0.5888642 0.1216278 0
0.6639566 0.1434434 0
0.7372701 0.1707868 0
0.7974516 0.2318161 0.1397439
0.8473018 0.3049627 0.2255874
0.8889356 0.3818414 0.3081552
0.9230285 0.45811 0.3920497
0.9507679 0.530268 0.4728797
0.9736314 0.5957108 0.5458258
0.9926583 0.6543086 0.6108971
1 0.7063967 0.6685747
1 0.7525006 0.7194958
1 0.7932222 0.7643598
1 0.8291726 0.8038665
1 0.860933 0.8386786
1 0.8890353 0.869401
1 0.9139542 0.8965723
1 0.9361066 0.9206651
1 0.9558548 0.9420891
1 0.9735117 0.9611973
1 0.9893463 0.9782929
1 1 0.9936354
1 1 1
1 1 1
1 1 1
1 1 1
1 1 1
1 1 1
1 1 1
1 1 1
1 1 1
1 1 1
1 1 1
1 1 1
0 0.0213353 0.0090442
0 0.0213909 0.0009464
0.0117535 0.0216075 0
0.0175434 0.0218751 0
0.0233679 0.0223348 0
0.0306675 0.0237761 0
0.0386723 0.0251455 0
0.0475476 0.0264834 0
0.0575548 0.0281285 0
0.0687818 0.0298393 0
0.0815177 0.0316968 0
0.0960634 0.0337804 0
0.1127469 0.0361748 0
0.1319405 0.0389737 0
0.1540786 0.0422822 0
0.1796744 0.046217 0
0.2093343 0.050908 0
0.2437637 0.0565019 0
0.283758 0.0631706 0
0.3301621 0.071124 0
0.3837718 0.0806315 0
0.4451296 0.0920542 0
0.5141278 0.1058966 0
0.5888915 0.1229415 0
0.6639655 0.1445068 0
0.737263 0.1716227 0
0.7974367 0.2323433 0.1397684
0.847285 0.3052955 0.2256112
0.8889197 0.3820532 0.3081775
0.923015 0.4582429 0.3920691
0.9507575 0.530351 0.4728936
0.9736237 0.595763 0.5458353
0.9926528 0.6543417 0.6109034
1 0.7064176 0.6685788
1 0.7525139 0.7194986
1 0.7932308 0.7643616
1 0.8291781 0.8038677
1 0.8609366 0.8386794
1 0.8890376 0.8694014
1 0.9139557 0.8965726
1 0.9361076 0.9206653
1 0.9558554 0.9420892
1 0.9735121 0.9611974
1 0.9893466 0.9782929
1 1 0.9936354
1 1 1
1 1 1
1 1 1
1 1 1
1 1 1
1 1 1
1 1 1
1 1 1
1 1 1
1 1 1
1 1 1
1 1 1
0 0.0281941 0.0118884
0 0.0282305 0.0077497
0.010933 0.0283626 0
0.0178677 0.0285726 0
0.0240938 0.0288417 0
0.0306528 0.029322 0
0.0387782 0.0307507 0
0.0478338 0.0322741 0
0.0579216 0.033892 0
0.0691872 0.0355395 0
0.0819244 0.0372989 0
0.0964449 0.0392476 0
0.1130886 0.0414666 0
0.1322374 0.0440471 0
0.1543321 0.047094 0
0.1798894 0.0507286 0
0.2095167 0.0550889 0
0.2439191 0.0603326 0
0.2838908 0.0666425 0
0.3302755 0.0742377 0
0.3838674 0.0833938 0
0.4452078 0.0944746 0
0.5141875 0.1079844 0
0.5889285 0.1247016 0
0.6639774 0.145939 0
0.7372532 0.1727529 0
0.7974164 0.233059 0.1398017
0.8472621 0.3057482 0.2256435
0.8888979 0.3823414 0.3082079
0.9229967 0.4584237 0.3920955
0.9507432 0.5304642 0.4729125
0.9736132 0.5958342 0.5458482
0.9926452 0.6543867 0.610912
1 0.7064462 0.6685845
1 0.7525321 0.7195023
1 0.7932424 0.764364
1 0.8291856 0.8038692
1 0.8609414 0.8386804
1 0.8890408 0.8694021
1 0.9139578 0.8965731
1 0.9361089 0.9206656
1 0.9558563 0.9420894
1 0.9735127 0.9611975
1 0.989347 0.978293
1 1 0.9936355
1 1 1
1 1 1
1 1 1
1 1 1
1 1 1
1 1 1
1 1 1
1 1 1
1 1 1
1 1 1
1 1 1
1 1 1
0 0.0358256 0.0150102
0 0.03585 0.0117615
0.0078725 0.0359167 0
0.0173815 0.0360791 0
0.0244081 0.0362875 0
0.0312964 0.0365619 0
0.038834 0.0371769 0
0.0481224 0.0388344 0
0.0582925 0.0404158 0
0.0696117 0.0420034 0
0.0823687 0.0436757 0
0.0968792 0.0455079 0
0.113492 0.0475776 0
0.132599 0.0499708 0
0.1546489 0.0527882 0
0.1801638 0.0561492 0
0.2097533 0.0601942 0
0.2441232 0.065087 0
0.2840669 0.0710193 0
0.3304269 0.0782198 0
0.3839957 0.086972 0
0.445313 0.097645 0
0.5142681 0.110745 0
0.5889784 0.1270477 0
0.6639935 0.1478607 0
0.7372398 0.1742769 0
0.7973888 0.2340295 0.139847
0.847231 0.3063634 0.2256876
0.8888682 0.3827336 0.3082494
0.9229718 0.45867 0.3921316
0.9507239 0.5306183 0.4729383
0.9735988 0.5959312 0.5458657
0.9926349 0.654448 0.6109236
1 0.7064851 0.6685922
1 0.752557 0.7195073
1 0.7932583 0.7643673
1 0.8291958 0.8038714
1 0.860948 0.8386818
1 0.889045 0.869403
1 0.9139605 0.8965736
1 0.9361107 0.920666
1 0.9558575 0.9420896
1 0.9735134 0.9611977
1 0.9893475 0.9782931
1 1 0.9936355
1 1 1
1 1 1
1 1 1
1 1 1
1 1 1
1 1 1
1 1 1
1 1 1
1 1 1
1 1 1
1 1 1
1 1 1
0 0.0443403 0.0184393
0 0.0443574 0.0157165
0 0.0443914 0.008704
0.0155739 0.0445032 0
0.0240227 0.0446865 0
0.0317911 0.0450617 0
0.0397165 0.0455638 0
0.0483586 0.0463355 0
0.0586231 0.0478662 0
0.0700172 0.0493926 0
0.0828202 0.0509836 0
0.0973456 0.0527105 0
0.1139467 0.0546477 0
0.1330235 0.0568768 0
0.1550338 0.0594924 0
0.1805063 0.0626082 0
0.2100552 0.0663611 0
0.244388 0.0709151 0
0.2842984 0.076466 0
0.3306277 0.0832487 0
0.3841671 0.0915538 0
0.4454543 0.1017559 0
0.5143765 0.1143648 0
0.5890456 0.1301539 0
0.6640149 0.1504261 0
0.7372213 0.1763249 0
0.797351 0.235343 0.1399087
0.8471885 0.3071988 0.2257476
0.8888278 0.3832667 0.3083058
0.9229379 0.459005 0.3921806
0.9506976 0.5308281 0.4729734
0.9735793 0.5960632 0.5458896
0.9926209 0.6545315 0.6109396
1 0.7065382 0.6686026
1 0.7525908 0.7195141
1 0.79328 0.7643717
1 0.8292097 0.8038743
1 0.860957 0.8386837
1 0.8890508 0.8694042
1 0.9139643 0.8965744
1 0.9361132 0.9206665
1 0.9558591 0.94209
1 0.9735145 0.9611979
1 0.9893482 0.9782932
1 1 0.9936356
1 1 1
1 1 1
1 1 1
1 1 1
1 1 1
1 1 1
1 1 1
1 1 1
1 1 1
1 1 1
1 1 1
1 1 1
0 0.0539717 0.0221361
0 0.0540217 0.0196954
0 0.0540989 0.0147392
0.0119442 0.0542401 0
0.0231815 0.0544581 0
0.0318075 0.0547482 0
0.0402272 0.0551347 0
0.049083 0.0556474 0
0.0588478 0.0564156 0
0.0703485 0.0578754 0
0.0832324 0.0593887 0
0.0978078 0.061019 0
0.114428 0.0628367 0
0.1334982 0.0649193 0
0.1554838 0.0673562 0
0.1809215 0.0702538 0
0.2104318 0.0737421 0
0.2447258 0.0779798 0
0.2845987 0.0831599 0
0.3308915 0.0895182 0
0.3843942 0.0973477 0
0.4456426 0.1070259 0
0.5145217 0.1190642 0
0.5891355 0.134233 0
0.6640432 0.1538297 0
0.7371958 0.1790644 0
0.7972993 0.2371167 0.1399927
0.8471306 0.3083319 0.2258294
0.8887728 0.383991 0.3083827
0.9228917 0.4594606 0.3922475
0.9506617 0.5311135 0.4730212
0.9735527 0.5962429 0.5459221
0.9926018 0.6546452 0.6109613
1 0.7066104 0.6686169
1 0.7526368 0.7195235
1 0.7933094 0.7643778
1 0.8292287 0.8038782
1 0.8609692 0.8386862
1 0.8890587 0.8694059
1 0.9139695 0.8965755
1 0.9361166 0.9206672
1 0.9558613 0.9420904
1 0.9735159 0.9611982
1 0.9893491 0.9782934
1 1 0.9936358
1 1 1
1 1 1
1 1 1
1 1 1
1 1 1
1 1 1
1 1 1
1 1 1
1 1 1
1 1 1
1 1 1
1 1 1
0 0.0650163 0.0260182
0 0.0650604 0.023791
0 0.0651286 0.0198102
0 0.0652426 0.0091554
0.0207093 0.0654127 0
0.0308809 0.0656374 0
0.0400669 0.0659365 0
0.0494137 0.0663341 0
0.0594195 0.0668595 0
0.0705279 0.0676354 0
0.0835396 0.0690722 0
0.0982111 0.070614 0
0.1148939 0.0723241 0
0.1339945 0.0742759 0
0.1559836 0.076554 0
0.1814055 0.0792585 0
0.2108878 0.0825109 0
0.245147 0.0864608 0
0.2849816 0.091293 0
0.3312336 0.0972369 0
0.3846923 0.1045807 0
0.445892 0.113698 0
0.5147149 0.1250966 0
0.5892553 0.1395383 0
0.6640802 0.1583106 0
0.7371602 0.182708 0
0.7972286 0.2395045 0.1401069
0.8470515 0.3098661 0.2259408
0.8886978 0.3849739 0.3084876
0.9228288 0.4600798 0.3923386
0.9506128 0.5315018 0.4730864
0.9735165 0.5964875 0.5459665
0.9925758 0.6548 0.6109908
1 0.7067088 0.6686364
1 0.7526995 0.7195362
1 0.7933496 0.7643861
1 0.8292545 0.8038836
1 0.8609858 0.8386897
1 0.8890695 0.8694082
1 0.9139765 0.896577
1 0.9361211 0.9206682
1 0.9558643 0.9420911
1 0.9735179 0.9611986
1 0.9893504 0.9782937
1 1 0.993636
1 1 1
1 1 1
1 1 1
1 1 1
1 1 1
1 1 1
1 1 1
1 1 1
1 1 1
1 1 1
1 1 1
1 1 1
0 0.0774069 0.0303991
0 0.0774491 0.0284145
0 0.0775127 0.0251465
0 0.0776134 0.0187966
0.014393 0.077765 0
0.0284551 0.0779398 0
0.0389467 0.0781728 0
0.0490471 0.0784831 0
0.0595663 0.0788953 0
0.0709526 0.0794396 0
0.0836513 0.0802374 0
0.0984793 0.0816975 0
0.1152812 0.0833125 0
0.134464 0.0851495 0
0.1565006 0.0872883 0
0.1819407 0.0898232 0
0.2114184 0.0928678 0
0.2456569 0.0965614 0
0.2854591 0.1010767 0
0.3316697 0.1066303 0
0.3850785 0.1134972 0
0.4462186 0.1220375 0
0.5149698 0.132745 0
0.5894133 0.1463617 0
0.6641278 0.1641551 0
0.7371103 0.1875193 0
0.7971318 0.242706 0.1402622
0.8469436 0.3119388 0.2260925
0.8885957 0.3863059 0.3086306
0.9227431 0.4609205 0.3924628
0.9505463 0.5320296 0.4731753
0.9734672 0.5968203 0.5460269
0.9925404 0.6550107 0.6110311
1 0.7068427 0.668663
1 0.752785 0.7195536
1 0.7934043 0.7643974
1 0.8292896 0.8038909
1 0.8610085 0.8386945
1 0.8890842 0.8694113
1 0.913986 0.896579
1 0.9361274 0.9206695
1 0.9558684 0.9420919
1 0.9735206 0.9611992
1 0.9893522 0.9782941
1 1 0.9936362
1 1 1
1 1 1
1 1 1
1 1 1
1 1 1
1 1 1
1 1 1
1 1 1
1 1 1
1 1 1
1 1 1
1 1 1
0 0.0913999 0.0353969
0 0.0914416 0.033657
0 0.0915029 0.0309457
0 0.0915956 0.0263233
0 0.0917416 0.0159801
0.0230738 0.091904 0
0.0363157 0.092087 0
0.0476676 0.0923314 0
0.0589709 0.0926572 0
0.0709133 0.0930904 0
0.0839362 0.0936628 0
0.0985084 0.0945001 0
0.1155027 0.0960322 0
0.1348349 0.0977717 0
0.1569798 0.0997917 0
0.1824897 0.1021809 0
0.2120034 0.1050457 0
0.2462496 0.1085155 0
0.2860367 0.1127493 0
0.332213 0.1179466 0
0.38557 0.1243616 0
0.4466407 0.1323302 0
0.5153023 0.1423185 0
0.5896192 0.1550311 0
0.6641875 0.1716964 0
0.73704 0.1938169 0
0.7969989 0.2469765 0.1404733
0.8467963 0.3147309 0.2262991
0.8884568 0.3881072 0.3088256
0.9226266 0.4620605 0.392632
0.9504559 0.5327465 0.4732963
0.9734001 0.5972727 0.5461092
0.9924922 0.6552973 0.611086
1 0.7070249 0.6686991
1 0.7529013 0.7195772
1 0.7934788 0.7644128
1 0.8293375 0.8039009
1 0.8610394 0.838701
1 0.8891043 0.8694155
1 0.9139991 0.8965818
1 0.9361359 0.9206713
1 0.955874 0.9420931
1 0.9735243 0.9611999
1 0.9893546 0.9782946
1 1 0.9936365
1 1 1
1 1 1
1 1 1
1 1 1
1 1 1
1 1 1
1 1 1
1 1 1
1 1 1
1 1 1
1 1 1
1 1 1
0 0.1072968 0.0411379
0 0.1073385 0.03963
0 0.1073984 0.0373685
0 0.107486 0.0337877
0 0.1076174 0.0274307
0 0.1078218 0.0075691
0.030875 0.1079723 0
0.0446905 0.1081671 0
0.0572797 0.1084276 0
0.0700694 0.1087754 0
0.0837106 0.1092383 0
0.0986632 0.1098512 0
0.1154393 0.1107497 0
0.1350076 0.1124088 0
0.1573397 0.1143323 0
0.1829902 0.1166016 0
0.2126004 0.1193158 0
0.2469022 0.1225948 0
0.2867079 0.1265844 0
0.3328694 0.1314647 0
0.3861809 0.1374642 0
0.4471757 0.1448848 0
0.5157289 0.15415 0
0.5898833 0.1659046 0
0.6642596 0.1813103 0
0.7369396 0.2019753 0
0.7968161 0.2526356 0.1407598
0.8465951 0.3184775 0.2265804
0.8882678 0.3905371 0.3090916
0.9224683 0.4636038 0.3928627
0.9503329 0.533719 0.4734611
0.9733089 0.5978872 0.5462213
0.9924265 0.6556871 0.6111608
1 0.7072729 0.6687484
1 0.7530596 0.7196094
1 0.7935802 0.7644338
1 0.8294027 0.8039146
1 0.8610815 0.8387098
1 0.8891315 0.8694212
1 0.9140168 0.8965855
1 0.9361475 0.9206737
1 0.9558816 0.9420947
1 0.9735293 0.961201
1 0.9893579 0.9782953
1 1 0.993637
1 1 1
1 1 1
1 1 1
1 1 1
1 1 1
1 1 1
1 1 1
1 1 1
1 1 1
1 1 1
1 1 1
1 1 1
0 0.1254556 0.0477677
0 0.1254972 0.046472
0 0.1255558 0.0445803
0 0.1256395 0.0417211
0 0.125761 0.0371232
0 0.1259419 0.0285968
0.0167726 0.1261824 0
0.0388079 0.1263398 0
0.0538474 0.126551 0
0.0680183 0.126834 0
0.0826005 0.1272124 0
0.0982543 0.1277167 0
0.1154783 0.1283858 0
0.1348465 0.1293719 0
0.157467 0.1312211 0
0.1833498 0.1333981 0
0.2131385 0.1359931 0
0.247566 0.139116 0
0.2874456 0.1428995 0
0.3336307 0.1475044 0
0.3869166 0.1531308 0
0.4478371 0.1600397 0
0.5162646 0.1685985 0
0.5902137 0.1793679 0
0.6643414 0.1934096 0
0.736795 0.2124203 0
0.796564 0.2600742 0.1411485
0.84632 0.3234794 0.2269633
0.8880108 0.3938032 0.3094545
0.9222531 0.4656879 0.3931769
0.9501657 0.535036 0.4736855
0.9731849 0.5987211 0.546374
0.9923373 0.6562165 0.6112627
1 0.7076101 0.6688155
1 0.753275 0.7196533
1 0.7937183 0.7644623
1 0.8294915 0.8039331
1 0.8611389 0.8387219
1 0.8891687 0.8694291
1 0.914041 0.8965906
1 0.9361632 0.920677
1 0.9558919 0.9420969
1 0.9735361 0.9612024
1 0.9893624 0.9782962
1 1 0.9936376
1 1 1
1 1 1
1 1 1
1 1 1
1 1 1
1 1 1
1 1 1
1 1 1
1 1 1
1 1 1
1 1 1
1 1 1
0 0.1463022 0.0554575
0 0.1463432 0.0543511
0 0.1464003 0.0527665
0 0.1464806 0.050444
0 0.1465947 0.0469104
0 0.1467595 0.041148
0 0.1470025 0.0299879
0.025249 0.147272 0
0.047271 0.1474459 0
0.06403 0.1476797 0
0.0801417 0.1479933 0
0.0968617 0.1484131 0
0.1148927 0.1489734 0
0.1347891 0.1497183 0
0.1572068 0.1508238 0
0.1834394 0.1529355 0
0.2135123 0.1554441 0
0.24816 0.1584476 0
0.2881938 0.1620647 0
0.3344645 0.1664365 0
0.387765 0.1717337 0
0.4486266 0.1781729 0
0.5169174 0.1860551 0
0.5906134 0.195834 0
0.6644241 0.208437 0
0.736584 0.2256212 0
0.796215 0.2697565 0.1416752
0.8459435 0.330114 0.2274845
0.8876617 0.398173 0.3099499
0.921961 0.4684938 0.3936052
0.9499389 0.5368161 0.4739912
0.9730164 0.5998509 0.546582
0.9922161 0.6569351 0.6114014
1 0.7080682 0.6689069
1 0.7535679 0.7197131
1 0.7939061 0.7645012
1 0.8296124 0.8039584
1 0.8612169 0.8387383
1 0.8892193 0.8694397
1 0.9140739 0.8965976
1 0.9361847 0.9206816
1 0.955906 0.9420998
1 0.9735453 0.9612044
1 0.9893685 0.9782975
1 1 0.9936384
1 1 1
1 1 1
1 1 1
1 1 1
1 1 1
1 1 1
1 1 1
1 1 1
1 1 1
1 1 1
1 1 1
1 1 1
0 0.1703412 0.0644082
0 0.1703812 0.0634679
0 0.1704366 0.0621393
0 0.1705136 0.0602327
0 0.1706214 0.0574301
0 0.170774 0.0531429
0 0.1709931 0.0460707
0 0.1713138 0.0318183
0.0329 0.1716159 0
0.056542 0.1718119 0
0.0754944 0.1720757 0
0.0939451 0.1724298 0
0.1132019 0.1729042 0
0.1340367 0.1735381 0
0.1570771 0.174382 0
0.1830817 0.1756442 0
0.2135745 0.1780974 0
0.2485634 0.181019 0
0.2888589 0.1845105 0
0.3353049 0.1886918 0
0.3886859 0.193703 0
0.4495249 0.1997138 0
0.51768 0.206953 0
0.5910724 0.2157476 0
0.6644872 0.2268622 0
0.7362724 0.2420803 0
0.7957302 0.2822146 0.1423887
0.8454278 0.3388417 0.2281941
0.8871881 0.4039842 0.3106268
0.9215653 0.4722557 0.3941889
0.9496314 0.5392148 0.4744073
0.9727879 0.6013785 0.5468651
0.9920515 0.6579089 0.6115903
1 0.70869 0.6690314
1 0.7539659 0.7197945
1 0.7941615 0.7645543
1 0.8297769 0.8039929
1 0.8613232 0.8387607
1 0.8892882 0.8694543
1 0.9141187 0.896607
1 0.936214 0.9206877
1 0.9559252 0.9421039
1 0.973558 0.961207
1 0.9893769 0.9782992
1 1 0.9936396
